packages/foundations/assets/icons/functional/images/audio & video/fast_backward_30_20.svg

<svg width="20" height="20" viewBox="0 0 20 20" fill="none" xmlns="http://www.w3.org/2000/svg">
<g clip-path="url(#clip0_184_258)">
<path fill-rule="evenodd" clip-rule="evenodd" d="M16.193 15.3575C15.549 15.3575 15.159 14.8115 15.159 14.4015C15.159 13.9325 15.9 12.8015 15.9 11.5315C15.9 8.8375 13.85 6.8075 11.352 6.5735L12.035 7.2175C12.191 7.4125 12.328 7.6665 12.328 7.9205C12.328 8.4275 11.86 8.8765 11.332 8.8765C11.0664 8.87962 10.8099 8.78002 10.616 8.5985L8.43796 6.4025C8.26003 6.21028 8.16391 5.95636 8.16996 5.6945C8.16961 5.57428 8.19362 5.45524 8.24054 5.34456C8.28746 5.23387 8.35632 5.13384 8.44296 5.0505L10.65 2.8255C10.7379 2.73302 10.8436 2.65936 10.9609 2.60899C11.0781 2.55863 11.2044 2.5326 11.332 2.5325C11.5956 2.53355 11.8482 2.63869 12.0347 2.82503C12.2213 3.01137 12.3266 3.26384 12.328 3.5275C12.3278 3.65539 12.3018 3.78193 12.2515 3.89949C12.2011 4.01704 12.1274 4.12318 12.035 4.2115L11.586 4.6605C13.2974 4.81817 14.8879 5.6109 16.0441 6.8826C17.2003 8.15429 17.8385 9.81279 17.833 11.5315L17.825 11.8435C17.755 13.2535 17.226 15.3575 16.193 15.3575ZM4.70996 10.3825C5.97096 10.3825 6.88596 11.2095 6.88596 12.3485C6.88596 12.7615 6.67496 13.1235 6.25596 13.4325C6.82896 13.7525 7.17596 14.2395 7.17596 14.8135C7.17596 17.2745 4.17596 17.4195 3.18896 17.4675H3.14096C2.88681 17.468 2.64257 17.369 2.46057 17.1916C2.27857 17.0142 2.17328 16.7726 2.16726 16.5185C2.16125 16.2644 2.25499 16.0181 2.42839 15.8323C2.60179 15.6465 2.84107 15.536 3.09496 15.5245C4.49896 15.4575 5.23296 15.2495 5.23296 14.9105C5.23296 14.7735 5.14696 14.6225 4.96096 14.6225C4.45596 14.6225 4.26196 14.7915 3.95696 14.7915C3.46996 14.7915 3.01196 14.3575 3.01196 13.8245C3.01196 13.4085 3.31596 13.0425 3.76496 12.9505C4.50996 12.7985 4.96996 12.6255 4.96996 12.4845C4.96996 12.4115 4.87996 12.3255 4.66696 12.3255C4.07896 12.3255 3.71596 12.7015 3.25896 12.7015C2.76296 12.7015 2.31096 12.2595 2.31096 11.7275C2.31096 11.3745 2.50996 11.0265 2.85296 10.8575C3.51096 10.5335 4.10196 10.3825 4.70996 10.3825ZM10.764 10.3805C12.364 10.3805 13.458 11.5125 13.458 13.2505V14.3425C13.458 16.0995 12.325 17.2325 10.666 17.2325C9.16296 17.2325 8.06996 16.0805 8.06996 14.3825V13.1715C8.06996 11.5115 9.20196 10.3805 10.764 10.3805ZM10.744 12.3275L10.66 12.3315C10.277 12.3555 10.022 12.4965 10.022 13.1515V14.3815C10.022 15.0655 10.237 15.2745 10.764 15.2645C11.232 15.2545 11.486 15.0255 11.486 14.3235V13.2305C11.486 12.4105 11.096 12.3185 10.744 12.3275Z" fill="#1A1C1F"/>
</g>
<defs>
<clipPath id="clip0_184_258">
<rect width="20" height="20" fill="white"/>
</clipPath>
</defs>
</svg>

<svg xmlns="http://www.w3.org/2000/svg" width="20" height="20" fill="none"><g clip-path="url(#a)"><path fill="#1A1C1F" fill-rule="evenodd" d="M16.193 15.358c-.644 0-1.034-.546-1.034-.957 0-.469.741-1.6.741-2.87 0-2.693-2.05-4.724-4.548-4.958l.683.644c.156.196.293.45.293.704 0 .506-.468.955-.996.955a1.03 1.03 0 0 1-.716-.277L8.438 6.401a1 1 0 0 1-.268-.708.9.9 0 0 1 .273-.643l2.207-2.226a.94.94 0 0 1 .682-.292 1 1 0 0 1 .996.994.95.95 0 0 1-.293.684l-.449.45a6.88 6.88 0 0 1 6.247 6.87l-.008.313c-.07 1.41-.599 3.514-1.632 3.514M4.71 10.383c1.261 0 2.176.827 2.176 1.966q0 .619-.63 1.083c.573.32.92.807.92 1.381 0 2.461-3 2.606-3.987 2.655h-.048a.972.972 0 0 1-.046-1.944c1.404-.066 2.138-.274 2.138-.613 0-.137-.086-.288-.272-.288-.505 0-.699.168-1.004.168-.487 0-.945-.434-.945-.966 0-.416.304-.782.753-.874.745-.152 1.205-.325 1.205-.466 0-.073-.09-.16-.303-.16-.588 0-.951.377-1.408.377-.496 0-.948-.443-.948-.975 0-.353.199-.7.542-.87.658-.323 1.249-.474 1.857-.474m6.054-.002c1.6 0 2.694 1.131 2.694 2.87v1.092c0 1.756-1.133 2.89-2.792 2.89-1.503 0-2.596-1.152-2.596-2.85v-1.211c0-1.66 1.132-2.792 2.694-2.792m-.02 1.947-.084.004c-.383.023-.638.164-.638.82v1.23c0 .684.215.893.742.883.468-.01.722-.24.722-.942V13.23c0-.82-.39-.912-.742-.902" clip-rule="evenodd"/></g><defs><clipPath id="a"><path fill="#fff" d="M0 0h20v20H0z"/></clipPath></defs></svg>
